X:1
T:Title
%%score { ( 1 3 ) | ( 2 4 ) }
L:1/8
M:4/4
K:Eb
V:1 treble nm="Grand Piano"
V:3 treble 
V:2 bass 
V:4 bass 
V:1
 z4 z2[Q:1/4=108] G>D | F2 E2 E2 A>=E | G2 F2 F2 G>A | [GB]2 [Ge]2 d2 c2 | B6 A>=E | G2 F2 F2 B>F | %6
 A2 G2 G2 G>G | F2 _G2 =G2 [E=A]2 |[M:3/4] [DB]6 |[M:1/4] B>B | %10
[M:4/4] [FAd]2 [EAc]2 [DFB]2 [CDA]2 | [B,EG]2 [EAc]2 [EGB]2 [B,EG]>[B,EA] | %12
 [A,DG]2 [A,DF]2 [DB]2 [DF]>[DG] | F2 E2 B2 [B,GB]>[B,GB] | [FAd]2 [EAc]2 [DFB]2 [CDA]2 | %15
 [B,EG]2 [EAc]2 [EGB]2 [DAB]>[_DB] | [CAc]2 [Ae]2 d2 f2 |[M:3/4] [Ge]6 |[M:1/4] B>B | %19
[M:4/4] [FAd]2 [EAc]2 [DFB]2 [CDA]2 | [B,EG]2 [EAc]2 [EGB]2 [B,EG]>[B,EA] | %21
 [A,DG]2 [A,DF]2 [DB]2 [DF]>[DG] | F2 E2 B2 [B,GB]>[B,GB] | [FAd]2 [EAc]2 [DFB]2 [CDA]2 | %24
 [B,EG]2 [EAc]2 [EGB]2 [DAB]>[_DB] | [CAc]2 [Be]2 [Af]3 d |[M:3/4] [Ge]6 |] %27
V:2
 z8 | .E,,2 .[E,G,B,]2 .[E,G,B,]2 z2 | .B,,2 .[F,A,B,D]2 .[F,A,B,D]2 z2 | %3
 [E,B,]2 [C,B,]2 [F,B,F]2 [F,=A,E]2 | [B,D]6 z2 | .B,,2 .[F,A,B,D]2 .[F,A,B,D]2 z2 | %6
 .E,,2 .[E,G,B,]2 .[E,G,B,]2 z2 | [F,B,D]2 [E,B,E]2 [D,B,]2 [C,F,]2 |[M:3/4] F,2 z2 z2 | %9
[M:1/4] B,>B, |[M:4/4] B,,2 B,,2 B,,2 B,,2 | E,2 E,2 E,2 E,>E, | %12
 B,,2 B,,2 [B,,A,]2 [B,,A,]>[B,,A,] | [E,G,B,]2 [E,G,B,]2 [E,G,E]2 E,>E, | B,,2 B,,2 B,,2 B,,2 | %15
 E,2 E,2 E,2 F,>G, | A,2 [F,C]2 [B,F]2 [B,,DA]2 |[M:3/4] [E,B,E]6 |[M:1/4] B,>B, | %19
[M:4/4] B,,2 B,,2 B,,2 B,,2 | E,2 E,2 E,2 E,>E, | B,,2 B,,2 [B,,A,]2 [B,,A,]>[B,,A,] | %22
 [E,G,B,]2 [E,G,B,]2 [E,G,E]2 E,>E, | B,,2 B,,2 B,,2 B,,2 | E,2 E,2 E,2 F,>G, | %25
 A,2 [G,B,]2 [F,C]3 [B,F] |[M:3/4] [E,B,]6 |] %27
V:3
 x8 | x8 | x8 | x8 | x8 | x8 | x8 | x8 |[M:3/4] z2 B,>B, B,2 |[M:1/4] x2 |[M:4/4] x8 | x8 | x8 | %13
 x8 | x8 | x8 | x8 |[M:3/4] x6 |[M:1/4] x2 |[M:4/4] x8 | x8 | x8 | x8 | x8 | x8 | x8 |[M:3/4] x6 |] %27
V:4
 x8 | x8 | x8 | x8 | x8 | x8 | x8 | x8 |[M:3/4] B,,6 |[M:1/4] x2 |[M:4/4] x8 | x8 | x8 | x8 | x8 | %15
 x8 | x8 |[M:3/4] x6 |[M:1/4] x2 |[M:4/4] x8 | x8 | x8 | x8 | x8 | x8 | x8 |[M:3/4] x6 |] %27

